X: 8094
T: Contentment Is Wealth
R: jig
M: 6/8
K: Edorian
~g3 edB|BAB EFG|F/G/AF DFA|dAF Adf|
~g3 edB|BAB EFG|B/c/dB AGF|GE=C E3:|
~e3 Beg|bge gfe|~d3 Adf|afd fed|
~e3 Beg|bge gfe|B/c/dB AGF|GE=C E3:|

